data/cards/shapes/star.svg

<svg width="513" height="512" viewBox="0 0 513 512" fill="none" xmlns="http://www.w3.org/2000/svg">
<path d="M300.465 37.639L334.617 106.839C340.193 118.139 348.433 127.913 358.627 135.319C368.821 142.725 380.663 147.541 393.133 149.351L469.492 160.451C510.164 166.361 526.402 216.342 496.972 245.029L441.718 298.888C432.695 307.683 425.946 318.54 422.052 330.524C418.158 342.507 417.236 355.258 419.366 367.677L432.409 443.728C439.358 484.236 396.843 515.128 360.464 496.001L292.164 460.095C281.012 454.23 268.601 451.165 256 451.165C243.4 451.165 230.988 454.23 219.836 460.095L151.539 495.998C115.16 515.123 72.6441 484.232 79.5941 443.725L92.6371 367.674C94.7669 355.255 93.8452 342.504 89.9513 330.521C86.0574 318.537 79.3081 307.68 70.2851 298.885L15.0311 245.021C-14.3999 216.334 1.84011 166.353 42.5121 160.443L118.871 149.343C131.341 147.532 143.183 142.716 153.377 135.31C163.571 127.904 171.811 118.13 177.387 106.831L211.535 37.631C229.723 0.787022 282.277 0.787024 300.465 37.639Z" fill="#FFEB99"/>
<path d="M206.887 219.529C247.442 181.775 287.825 92.092 305.871 48.588L300.465 37.639C282.278 0.786999 229.723 0.786999 211.535 37.639L177.387 106.839C171.811 118.138 163.571 127.912 153.377 135.318C143.183 142.724 131.341 147.54 118.871 149.351L42.5122 160.451C1.84023 166.353 -14.3998 216.334 15.0272 245.021L70.2852 298.88C79.3077 307.675 86.0563 318.533 89.9495 330.516C93.8427 342.5 94.7637 355.25 92.6332 367.669L79.5902 443.721C72.6412 484.229 115.16 515.121 151.535 495.994L200.48 470.26C233.328 353.611 134.094 287.298 206.887 219.529Z" fill="#FFDE55"/>
</svg>

<svg xmlns="http://www.w3.org/2000/svg" width="513" height="512" fill="none"><path fill="#FFEB99" d="m300.465 37.639 34.152 69.2a77.703 77.703 0 0 0 58.516 42.512l76.359 11.1c40.672 5.91 56.91 55.891 27.48 84.578l-55.254 53.859a77.716 77.716 0 0 0-22.352 68.789l13.043 76.051c6.949 40.508-35.566 71.4-71.945 52.273l-68.3-35.906a77.693 77.693 0 0 0-72.328 0l-68.297 35.903c-36.379 19.125-78.895-11.766-71.945-52.273l13.043-76.051a77.715 77.715 0 0 0-22.352-68.789l-55.254-53.864c-29.43-28.687-13.19-78.668 27.481-84.578l76.359-11.1a77.708 77.708 0 0 0 58.516-42.512l34.148-69.2c18.188-36.844 70.742-36.844 88.93.008Z"/><path fill="#FFDE55" d="M206.887 219.529c40.555-37.754 80.938-127.437 98.984-170.941l-5.406-10.949c-18.187-36.852-70.742-36.852-88.93 0l-34.148 69.2a77.707 77.707 0 0 1-58.516 42.512l-76.359 11.1c-40.672 5.902-56.912 55.883-27.485 84.57l55.258 53.859a77.715 77.715 0 0 1 22.348 68.789L79.59 443.721c-6.949 40.508 35.57 71.4 71.945 52.273l48.945-25.734c32.848-116.649-66.386-182.962 6.407-250.731Z"/></svg>
